public/library/bitcoin-2025-icon-light.svg

<svg width="213" height="213" viewBox="0 0 213 213" fill="none" xmlns="http://www.w3.org/2000/svg">
<path d="M106.681 0.000534841C107.427 0.00173823 108.161 0.0101573 108.907 0.0258014C110.387 0.0594964 111.867 0.122082 113.335 0.215947C117.367 0.471066 121.374 0.954834 125.345 1.66484C129.521 2.40974 133.637 3.40609 137.692 4.64558C141.796 5.90072 145.815 7.40616 149.726 9.14867C155.117 11.5494 160.316 14.4016 165.238 17.664C170.256 20.9925 174.997 24.7471 179.39 28.8735C183.818 33.0312 187.886 37.5656 191.544 42.4128C195.19 47.2324 198.427 52.3709 201.195 57.7501C203.53 62.2628 205.539 66.944 207.2 71.7455C208.825 76.4508 210.124 81.2884 211.063 86.1862C212.362 92.8771 213 99.6884 213 106.5C213 111.361 212.675 116.235 212.014 121.049C211.292 126.356 210.16 131.614 208.644 136.741C207.056 142.096 205.046 147.331 202.639 152.361C199.907 158.065 196.67 163.528 192.976 168.655C189.233 173.841 185.033 178.691 180.436 183.132C175.635 187.765 170.4 191.94 164.829 195.599C159.353 199.197 153.541 202.29 147.5 204.817C140.845 207.597 133.901 209.69 126.813 211.062C120.183 212.35 113.432 212.988 106.681 213C99.9177 213.012 93.1546 212.386 86.5239 211.122C79.4359 209.775 72.4801 207.705 65.8133 204.937C59.7603 202.434 53.936 199.353 48.4485 195.779C42.8648 192.133 37.618 187.969 32.8164 183.36C28.1954 178.932 23.9836 174.094 20.229 168.919C16.5105 163.793 13.2612 158.354 10.5175 152.65C8.08661 147.632 6.06505 142.409 4.46454 137.054C2.9242 131.927 1.78097 126.692 1.03487 121.385C0.348937 116.452 0 111.482 0 106.5C0 99.7967 0.625717 93.0937 1.87725 86.5112C2.81589 81.6134 4.09153 76.7757 5.71611 72.0464C7.35273 67.2448 9.35017 62.5517 11.6607 58.039C14.4165 52.6478 17.6416 47.5092 21.2758 42.668C24.9462 37.7678 29.0497 33.1841 33.5023 28.983C37.8946 24.8506 42.624 21.0887 47.6421 17.7529C52.564 14.4833 57.7507 11.6241 63.1419 9.21495C67.0529 7.46642 71.0723 5.95489 75.1638 4.69494C79.2072 3.44823 83.3349 2.44587 87.4986 1.69375C91.4698 0.977727 95.477 0.489098 99.4963 0.226759C100.977 0.130487 102.457 0.065518 103.925 0.0306197C104.671 0.0125688 105.417 0.00294163 106.163 0.000534841C106.332 0.000534841 106.5 -0.000668551 106.681 0.000534841ZM106.356 13.5881C104.358 13.5929 102.372 13.6578 100.387 13.7865C96.873 14.0152 93.3711 14.4412 89.9174 15.0657C86.2831 15.7216 82.685 16.5953 79.159 17.6808C75.597 18.7807 72.0951 20.0972 68.6775 21.6207C63.7677 23.8169 59.0504 26.4427 54.5858 29.4572C50.5304 32.1949 46.7035 35.2502 43.1294 38.5872C39.086 42.3647 35.3675 46.5032 32.0582 50.9389C29.146 54.8259 26.5467 58.9415 24.2723 63.2376C22.0822 67.4014 20.1929 71.7336 18.6646 76.1741C17.3047 80.1092 16.2095 84.1285 15.3912 88.1959C14.1998 94.1768 13.5983 100.266 13.5983 106.343C13.5863 110.747 13.8871 115.14 14.5009 119.496C15.1868 124.406 16.2697 129.256 17.7258 133.985C19.0736 138.305 20.7344 142.541 22.6959 146.633C25.199 151.855 28.2073 156.837 31.637 161.507C34.814 165.815 38.352 169.846 42.2149 173.553C46.4147 177.584 50.9876 181.218 55.8734 184.395C60.6629 187.512 65.7292 190.195 71.0121 192.386C76.7403 194.756 82.697 196.549 88.7742 197.717C94.6588 198.86 100.664 199.426 106.657 199.413C112.553 199.401 118.45 198.836 124.238 197.717C130.411 196.525 136.453 194.696 142.253 192.277C147.62 190.039 152.759 187.283 157.608 184.082C162.386 180.929 166.874 177.331 170.99 173.36C174.949 169.545 178.559 165.382 181.784 160.941C185.106 156.356 188.006 151.482 190.437 146.368C192.447 142.156 194.143 137.776 195.491 133.299C196.875 128.69 197.898 123.973 198.56 119.207C199.149 114.899 199.426 110.555 199.414 106.199C199.402 103.226 199.258 100.242 198.969 97.2815C198.656 94.1407 198.187 91.0119 197.561 87.9192C196.682 83.611 195.503 79.375 194.023 75.2354C192.519 71.0355 190.701 66.932 188.608 62.9849C186.189 58.4481 183.409 54.1159 180.28 50.0484C177.115 45.9099 173.589 42.041 169.774 38.491C165.996 34.9699 161.928 31.7616 157.608 28.9132C153.312 26.0744 148.787 23.593 144.07 21.5064C140.652 19.9925 137.151 18.6855 133.577 17.5977C130.051 16.5218 126.452 15.659 122.818 15.0152C119.292 14.3919 115.742 13.9731 112.18 13.7589C110.243 13.6422 108.305 13.5869 106.356 13.5881Z" fill="black"/>
<path d="M57.0004 121.183V112.242H67.6512C69.9889 112.242 72.1205 114.237 72.1205 116.713C72.1205 119.189 70.127 121.183 67.6512 121.183H57.0004ZM57.0004 100.896V91.9565H64.5109C66.9867 91.9565 68.9812 93.9499 68.9812 96.4258C68.9812 98.9016 66.9867 100.896 64.5109 100.896H57.0004ZM70.6494 132.323C78.8335 132.323 85.5995 125.377 85.5995 117.194C85.5995 112.518 83.2617 108.185 79.7542 105.366C81.7486 102.821 82.4592 99.5891 82.4592 96.0825C82.4592 87.8304 75.445 80.7472 67.1929 80.7472H43.4534V132.323H70.6494Z" fill="black"/>
<path d="M89.1742 94.157H99.827V132.323H113.374V94.157H123.842V80.6781H89.1742V94.157Z" fill="black"/>
<path fill-rule="evenodd" clip-rule="evenodd" d="M171.49 124.762C166.816 129.435 160.352 132.328 153.226 132.328C138.976 132.328 127.407 120.749 127.407 106.498C127.407 92.248 138.976 80.6794 153.226 80.6794C160.352 80.6794 166.816 83.5716 171.49 88.2451L161.803 97.9222C159.611 95.7306 156.579 94.3696 153.226 94.3696C146.531 94.3696 141.097 99.8036 141.097 106.498C141.097 113.193 146.531 118.638 153.226 118.638C156.579 118.638 159.611 117.276 161.803 115.075L171.49 124.762Z" fill="black"/>
</svg>

<svg xmlns="http://www.w3.org/2000/svg" width="213" height="213" fill="none" viewBox="0 0 213 213"><path fill="#000" d="M106.681 0a108.008 108.008 0 0 1 6.654.215 106.4 106.4 0 0 1 24.357 4.43 105 105 0 0 1 12.034 4.504 106.6 106.6 0 0 1 29.664 19.725 107 107 0 0 1 12.154 13.539 105.3 105.3 0 0 1 9.651 15.337 105.6 105.6 0 0 1 6.005 13.996 105 105 0 0 1 3.863 14.44A106.6 106.6 0 0 1 213 106.5c0 4.861-.325 9.735-.986 14.549a105.6 105.6 0 0 1-3.37 15.692 106.1 106.1 0 0 1-15.668 31.914 108 108 0 0 1-12.54 14.477 107.4 107.4 0 0 1-15.607 12.467 106.3 106.3 0 0 1-17.329 9.218 106 106 0 0 1-20.687 6.245A106.6 106.6 0 0 1 106.681 213a106.7 106.7 0 0 1-20.157-1.878 105.4 105.4 0 0 1-20.71-6.185 106.3 106.3 0 0 1-17.365-9.158 107.3 107.3 0 0 1-28.22-26.86 106 106 0 0 1-9.711-16.269 104 104 0 0 1-6.053-15.596 105.5 105.5 0 0 1-3.43-15.669A108 108 0 0 1 0 106.5c0-6.703.626-13.406 1.877-19.989a106 106 0 0 1 3.84-14.465 105.92 105.92 0 0 1 15.56-29.378A107 107 0 0 1 33.5 28.983a106.683 106.683 0 0 1 29.64-19.768 105.7 105.7 0 0 1 24.357-7.521A107 107 0 0 1 106.163 0c.169 0 .337-.002.518 0m-.325 13.588c-1.998.005-3.984.07-5.969.199a93 93 0 0 0-10.47 1.279A92 92 0 0 0 79.16 17.68a94 94 0 0 0-10.482 3.94A93.2 93.2 0 0 0 43.13 38.587 93 93 0 0 0 32.06 50.94a93.4 93.4 0 0 0-7.787 12.299 92.5 92.5 0 0 0-5.607 12.936 93 93 0 0 0-3.274 12.022 93 93 0 0 0-1.793 18.147 92.4 92.4 0 0 0 .903 13.153 93 93 0 0 0 3.225 14.489 94 94 0 0 0 4.97 12.648 93.3 93.3 0 0 0 8.941 14.874 94 94 0 0 0 10.578 12.046 92.8 92.8 0 0 0 13.658 10.842 93.3 93.3 0 0 0 15.14 7.991 92 92 0 0 0 17.761 5.331 93 93 0 0 0 17.883 1.696 93.7 93.7 0 0 0 17.581-1.696 92.3 92.3 0 0 0 18.015-5.44 92.6 92.6 0 0 0 15.355-8.195 93.3 93.3 0 0 0 13.382-10.722 93.7 93.7 0 0 0 10.794-12.419 92.6 92.6 0 0 0 8.653-14.573 92 92 0 0 0 5.054-13.069 94 94 0 0 0 3.069-14.092c.589-4.308.866-8.652.854-13.008a96 96 0 0 0-.445-8.918 94 94 0 0 0-1.408-9.362 93 93 0 0 0-3.538-12.684 93.4 93.4 0 0 0-5.415-12.25 93 93 0 0 0-8.328-12.937 93 93 0 0 0-10.506-11.557 92.7 92.7 0 0 0-12.166-9.578 92 92 0 0 0-13.538-7.407 92.2 92.2 0 0 0-21.252-6.49 93 93 0 0 0-10.638-1.257 96 96 0 0 0-5.824-.17"/><path fill="#000" d="M57 121.183v-8.941h10.651c2.338 0 4.47 1.995 4.47 4.471a4.46 4.46 0 0 1-4.47 4.47zm0-20.287v-8.94h7.51a4.46 4.46 0 0 1 4.471 4.47 4.46 4.46 0 0 1-4.47 4.47zm13.65 31.427c8.183 0 14.95-6.946 14.95-15.129 0-4.676-2.338-9.009-5.846-11.828 1.995-2.545 2.705-5.777 2.705-9.284 0-8.252-7.014-15.335-15.266-15.335h-23.74v51.576zM89.174 94.157h10.653v38.166h13.547V94.157h10.468V80.678H89.174z"/><path fill="#000" fill-rule="evenodd" d="M171.49 124.762a25.77 25.77 0 0 1-18.264 7.566c-14.25 0-25.819-11.579-25.819-25.83s11.569-25.819 25.819-25.819c7.126 0 13.59 2.893 18.264 7.566l-9.687 9.677a12.1 12.1 0 0 0-8.577-3.552c-6.695 0-12.129 5.434-12.129 12.128 0 6.695 5.434 12.14 12.129 12.14 3.353 0 6.385-1.362 8.577-3.563z" clip-rule="evenodd"/></svg>
